X: 1
T: Old Maids Of Galway, The
M: 4/4
L: 1/8
R: reel
K: Bmin
dc||BF (3FFF BFAF|E2 DE FAdc|BF (3FFF BFAF|(3EFE DE FDDA|
BF (3FFF BFAF|E2 DE FAAd|~B3 c dBAF|(3EEE DE FDDA||
||dfed B2 AB|dfed Be (3eee|defd BdAF|(3EFE DE FDDA|
dfed B2 AB|defd edeg|faec dBAF|(3EFE DE FDDA||
